modules/zondicons/icons/link.svg

<?xml version="1.0" encoding="UTF-8" standalone="no"?>
<svg width="20px" height="20px" viewBox="0 0 20 20" version="1.1" xmlns="http://www.w3.org/2000/svg" xmlns:xlink="http://www.w3.org/1999/xlink">
    <!-- Generator: Sketch 3.7.2 (28276) - http://www.bohemiancoding.com/sketch -->
    <title>link</title>
    <desc>Created with Sketch.</desc>
    <defs></defs>
    <g id="Page-1" stroke="none" stroke-width="1" fill="none" fill-rule="evenodd">
        <g id="link" fill="#000000">
            <path d="M13.9001835,11 C13.9656429,10.6768901 14,10.3424658 14,10 C14,7.24419519 11.7636493,5 9.00497092,5 L4.99502908,5 C2.23382212,5 0,7.23857625 0,10 C0,12.7558048 2.23635069,15 4.99502908,15 L6.10084114,15 C5.5100328,14.4211996 5.02141756,13.7385101 4.66454706,12.9813785 C3.16556053,12.8140816 2,11.5402162 2,10 C2,8.34314575 3.3486445,7 5.00032973,7 L8.99967027,7 C10.6567066,7 12,8.34651712 12,10 C12,10.3506354 11.9395995,10.6872211 11.8287087,11 L13.9001835,11 Z M6.09981648,9 C6.03435714,9.32310994 6,9.65753416 6,10 C6,12.7558048 8.23635069,15 10.9950291,15 L15.0049709,15 C17.7661779,15 20,12.7614237 20,10 C20,7.24419519 17.7636493,5 15.0049709,5 L13.9005653,5 C14.4909917,5.5788138 14.9792888,6.26152143 15.3359225,7.01867392 C16.8346829,7.18618441 18,8.45994465 18,10 C18,11.6568542 16.6513555,13 14.9996703,13 L11.0003297,13 C9.34329338,13 8,11.6534829 8,10 C8,9.64936458 8.06040049,9.31277893 8.17129128,9 L6.09981648,9 L6.09981648,9 Z" id="Combined-Shape"></path>
        </g>
    </g>
</svg>

<svg width="20" height="20" viewBox="0 0 20 20" xmlns="http://www.w3.org/2000/svg"><path d="M13.9 11a5.001 5.001 0 0 0-4.895-6h-4.01a5.001 5.001 0 0 0 0 10h1.106a7.014 7.014 0 0 1-1.436-2.019A3.003 3.003 0 0 1 2 10c0-1.657 1.349-3 3-3h4a3.002 3.002 0 0 1 2.829 4H13.9zM6.1 9a5.001 5.001 0 0 0 4.895 6h4.01a5.001 5.001 0 0 0 0-10h-1.104a7.014 7.014 0 0 1 1.435 2.019A3.003 3.003 0 0 1 18 10c0 1.657-1.349 3-3 3h-4a3.002 3.002 0 0 1-2.829-4H6.1z" fill="#000" fill-rule="evenodd"/></svg>
